img/gallery-item-link.svg

<svg xmlns="http://www.w3.org/2000/svg" width="48" height="44"><path fill-rule="evenodd" fill="#828C8E" d="M44.045 4.451c-5.271-5.268-13.819-5.268-19.09 0L3.07 26.053c-4.092 4.09-4.092 10.745 0 14.835 4.093 4.088 10.755 4.088 14.848 0l21.885-21.604c2.929-2.927 2.929-7.669 0-10.595-2.93-2.925-7.679-2.925-10.606 0L12.744 25.122c-.586.587-.586 1.534 0 2.121.586.585 1.535.585 2.121 0l16.453-16.436c1.755-1.751 4.609-1.751 6.364 0 1.755 1.753 1.755 4.605 0 6.359L15.797 38.768c-2.93 2.926-7.676 2.926-10.606 0-2.929-2.926-2.929-7.67 0-10.594L26.862 6.782c4.102-4.097 10.752-4.097 14.848 0 4.105 4.098 4.105 10.736.003 14.833L25.474 37.837c-.589.587-.589 1.534 0 2.118.585.587 1.535.587 2.121 0l16.45-16.433c5.273-5.267 5.273-13.805 0-19.071z"/></svg>

﻿<svg 
 xmlns="http://www.w3.org/2000/svg"
 xmlns:xlink="http://www.w3.org/1999/xlink"
 width="48px" height="44px">
<path fill-rule="evenodd"  fill="rgb(130, 140, 142)"
 d="M44.045,4.451 C38.774,-0.817 30.226,-0.817 24.955,4.451 L3.070,26.053 C-1.022,30.143 -1.022,36.798 3.070,40.888 C7.163,44.976 13.825,44.976 17.918,40.888 L39.803,19.284 C42.732,16.357 42.732,11.615 39.803,8.689 C36.873,5.764 32.124,5.764 29.197,8.689 L12.744,25.122 C12.158,25.709 12.158,26.656 12.744,27.243 C13.330,27.828 14.279,27.828 14.865,27.243 L31.318,10.807 C33.073,9.056 35.927,9.056 37.682,10.807 C39.437,12.560 39.437,15.412 37.682,17.166 L15.797,38.768 C12.867,41.694 8.121,41.694 5.191,38.768 C2.262,35.842 2.262,31.098 5.191,28.174 L26.862,6.782 C30.964,2.685 37.614,2.685 41.710,6.782 C45.815,10.880 45.815,17.518 41.713,21.615 L25.474,37.837 C24.885,38.424 24.885,39.371 25.474,39.955 C26.059,40.542 27.009,40.542 27.595,39.955 L44.045,23.522 C49.318,18.255 49.318,9.717 44.045,4.451 Z"/>
</svg>
